src/flags/country-flag/1F1FA-1F1FF.svg

<svg id="emoji" viewBox="0 0 72 72" xmlns="http://www.w3.org/2000/svg">
  <g id="grid">
    <path fill="#b3b3b3" d="M68,4V68H4V4H68m4-4H0V72H72V0Z"/>
    <path fill="none" stroke="#00a5ff" stroke-miterlimit="10" stroke-width="0.1" d="M12.923,10.9583H59.0769A1.9231,1.9231,0,0,1,61,12.8814V59.0352a1.9231,1.9231,0,0,1-1.9231,1.9231H12.9231A1.9231,1.9231,0,0,1,11,59.0352V12.8813A1.923,1.923,0,0,1,12.923,10.9583Z"/>
    <rect x="16" y="4" rx="2.2537" ry="2.2537" width="40" height="64" fill="none" stroke="#00a5ff" stroke-miterlimit="10" stroke-width="0.1"/>
    <rect x="16" y="4" rx="2.2537" ry="2.2537" width="40" height="64" transform="translate(72) rotate(90)" fill="none" stroke="#00a5ff" stroke-miterlimit="10" stroke-width="0.1"/>
    <circle cx="36" cy="36" r="29" fill="none" stroke="#00a5ff" stroke-miterlimit="10" stroke-width="0.1"/>
  </g>
  <g id="color">
    <rect x="5" y="17" width="62" height="38" fill="#b1cc33"/>
    <rect x="5" y="17" width="62" height="13" fill="#61b2e4"/>
    <rect x="5" y="30.25" width="62" height="11.5" fill="#fff" stroke="#d22f27" stroke-miterlimit="10" stroke-width="1.5"/>
    <circle cx="29.25" cy="21" r="1" fill="#fff"/>
    <circle cx="29.25" cy="24" r="1" fill="#fff"/>
    <circle cx="29.25" cy="27" r="1" fill="#fff"/>
    <circle cx="26.25" cy="21" r="1" fill="#fff"/>
    <circle cx="26.25" cy="24" r="1" fill="#fff"/>
    <circle cx="26.25" cy="27" r="1" fill="#fff"/>
    <circle cx="23.25" cy="21" r="1" fill="#fff"/>
    <circle cx="23.25" cy="24" r="1" fill="#fff"/>
    <circle cx="23.25" cy="27" r="1" fill="#fff"/>
    <circle cx="20.25" cy="24" r="1" fill="#fff"/>
    <circle cx="20.25" cy="27" r="1" fill="#fff"/>
    <circle cx="17.25" cy="27" r="1" fill="#fff"/>
    <path fill="#fff" stroke="#fff" stroke-linecap="round" stroke-linejoin="round" d="M11.2973,24A3.4648,3.4648,0,0,1,14,20.5668a3.2286,3.2286,0,0,0-.6486-.0668,3.5033,3.5033,0,0,0,0,7A3.2286,3.2286,0,0,0,14,27.4332,3.4648,3.4648,0,0,1,11.2973,24Z"/>
  </g>
  <g id="line">
    <rect x="5" y="17" width="62" height="38" fill="none" stroke="#000" stroke-linecap="round" stroke-linejoin="round" stroke-width="2"/>
  </g>
</svg>

<svg viewBox="0 0 72 72" xmlns="http://www.w3.org/2000/svg"><path fill="#b3b3b3" d="M68 4v64H4V4h64m4-4H0v72h72V0z"/><path fill="none" stroke="#00a5ff" stroke-miterlimit="10" stroke-width=".1" d="M12.923 10.958h46.154A1.923 1.923 0 0161 12.881v46.154a1.923 1.923 0 01-1.923 1.923H12.923A1.923 1.923 0 0111 59.035V12.881a1.923 1.923 0 011.923-1.923z"/><rect x="16" y="4" rx="2.254" ry="2.254" width="40" height="64" fill="none" stroke="#00a5ff" stroke-miterlimit="10" stroke-width=".1"/><rect x="16" y="4" rx="2.254" ry="2.254" width="40" height="64" transform="rotate(90 36 36)" fill="none" stroke="#00a5ff" stroke-miterlimit="10" stroke-width=".1"/><circle cx="36" cy="36" r="29" fill="none" stroke="#00a5ff" stroke-miterlimit="10" stroke-width=".1"/><path d="M5 17h62v38H5z" stroke-linecap="round" stroke-miterlimit="10" stroke-width="6" stroke="#fff" fill="none" stroke-linejoin="round"/><path fill="#b1cc33" d="M5 17h62v38H5z"/><path fill="#61b2e4" d="M5 17h62v13H5z"/><path fill="#fff" stroke="#d22f27" stroke-miterlimit="10" stroke-width="1.5" d="M5 30.25h62v11.5H5z"/><circle cx="29.25" cy="21" r="1" fill="#fff"/><circle cx="29.25" cy="24" r="1" fill="#fff"/><circle cx="29.25" cy="27" r="1" fill="#fff"/><circle cx="26.25" cy="21" r="1" fill="#fff"/><circle cx="26.25" cy="24" r="1" fill="#fff"/><circle cx="26.25" cy="27" r="1" fill="#fff"/><circle cx="23.25" cy="21" r="1" fill="#fff"/><circle cx="23.25" cy="24" r="1" fill="#fff"/><circle cx="23.25" cy="27" r="1" fill="#fff"/><circle cx="20.25" cy="24" r="1" fill="#fff"/><circle cx="20.25" cy="27" r="1" fill="#fff"/><circle cx="17.25" cy="27" r="1" fill="#fff"/><path fill="#fff" stroke="#fff" stroke-linecap="round" stroke-linejoin="round" d="M11.297 24A3.465 3.465 0 0114 20.567a3.229 3.229 0 00-.649-.067 3.503 3.503 0 000 7 3.229 3.229 0 00.649-.067A3.465 3.465 0 0111.297 24z"/><g><path fill="none" stroke="#000" stroke-linecap="round" stroke-linejoin="round" stroke-width="2" d="M5 17h62v38H5z"/></g></svg>
